X: 659
T: Esmerim Biçim Biçim
C: İzzet Altınmeşe
O: Turkey
F: http://compmusic.upf.edu/node/140
N: hicaz--turku--sofyan--esmerim_bicim--diyarbakir
N: makam= hicaz
N: form= turku
N: usul= sofyan = 4/4
M: 4/4
L: 1/16
K: C _7/8B ^f ^c 
Q: 1/4=72
%%MIDI tuningsystem comma53
g2a2 a2af g/a/g/a/gf f4  | fga2 a2a2 g/a/g/a/gf f4  | 
w:  Es me rim  bi *  çim  *  *  *  bi *  çim    |  Ö lü *  rem_ es mer_ *  *  *  i *  çin    | 
g2a2 a2af g/a/g/a/gf f4  | fga2 a2a2 g/a/g/a/gf f4  | 
w:  Es me rim  bi *  çim  *  *  *  bi *  çim    |  Ö lü *  rem_ es mer_ *  *  *  i *  çin    | 
fga2 aee2 {e}g2g=f feed  | g=ffe eddc cBBA A2ee  | 
w:  Â *  lem  ba na  *  *  düş man *  dır    |  Es *  mer  *  sev *  di *  ğim_ *  i *  çin  ay_ ay    | 
z2cd e2e2 e3/2g/=fe dcd2  | g=ffe eddc cBBA A2ee  | 
w:  He le  loy  *  loy  *  *  *  loy    |  Ki bar  *  *  yâ *  rim_ *  es *  me *  rim  ay_ ay    | 
z2cd e2e2 e3/2g/=fe dcd2  | g=ffe eddc cBBA A4  | 
w:  He le  loy  *  loy  *  *  *  loy    |  Ki bar  *  *  yâ *  rim_ *  es *  me *  rim    | 
g2a2 a2af g/a/g/a/gf f4  | fga2 a2a2 g/a/g/a/gf f4  | 
w:  Es me rim  bi *  çim  *  *  *  bi *  çim    |  Ö lü *  rem_ es mer_ *  *  *  i *  çin    | 
g2a2 a2af g/a/g/a/gf f4  | fga2 a2a2 g/a/g/a/gf f4  | 
w:  Es me rim  bi *  çim  *  *  *  bi *  çim    |  Ö lü *  rem_ es mer_ *  *  *  i *  çin    | 
fga2 aee2 {e}g2g=f feed  | g=ffe eddc cBBA A2ee  | 
w:  Â *  lem  ba na  *  *  düş man *  dır    |  Es *  mer  *  sev *  di *  ğim_ *  i *  çin  ay_ ay    | 
z2cd e2e2 e3/2g/=fe dcd2  | g=ffe eddc cBBA A2ee  | 
w:  He le  loy  *  loy  *  *  *  loy    |  Ki bar  *  *  yâ *  rim_ *  es *  me *  rim  ay_ ay    | 
z2cd e2e2 e3/2g/=fe dcd2  | g=ffe eddc cBBA A4  | 
w:  He le  loy  *  loy  *  *  *  loy    |  Ki bar  *  *  yâ *  rim_ *  es *  me *  rim    | 
|


